X: 35258
T: Rose Anne's
R: polka
M: 2/4
K: Amajor
|:A>G Ac|B>A Bc|A>G Ac|ea a2|A>G Ac|B>A Bc|AF EF|1 D2 DE:|2 D2 D2|:
eA Ac|B/c/B/A/ Bc|eA Ac|ea a>f|eA Ac|B/c/B/A/ Bc|AF EF|1 D2 D2:|2 D2 DE||

